icons/folder-snippet.svg

<svg xmlns="http://www.w3.org/2000/svg" viewBox="0 0 16 16">
<path id="folder" fill="#ff9800" d="m6.922 3.768-.644-.536A1 1 0 0 0 5.638 3H2a1 1 0 0 0-1 1v8a1 1 0 0 0 1 1h12a1 1 0 0 0 1-1V5a1 1 0 0 0-1-1H7.562a1 1 0 0 1-.64-.232" />
<path id="motive" fill="#ffe0b2" d="M 9.999879,5 C 9.999879,5 9,5.929888 9,6.999759 c 0,1.069872 2.999639,3.999519 2.999639,3.999519 l -0.444946,0.439947 a 1.4998196,1.4998195 0 0 0 -2.549694,0.99988 1.504819,1.5048189 0 0 0 1.429828,1.559812 1.5098183,1.5098182 0 0 0 1.554813,-1.619805 l 1.009879,-0.629924 0.124984,0.154981 a 1.5098183,1.5098182 0 0 0 1.314842,2.094748 1.504819,1.5048189 0 0 0 1.559812,-1.439827 1.504819,1.5048189 0 0 0 -2.189736,-1.389833 z m 4.999399,0 -1.999759,3.999519 0.999879,0.999879 c 0,0 1.999759,-1.969763 1.999759,-2.999639 C 15.999157,5.969883 14.999278,5 14.999278,5 m -4.529455,6.999157 h 0.04999 c 0.25497,0.01 0.449946,0.199976 0.474943,0.444947 v 0.09999 A 0.48994105,0.48994102 0 0 1 10.479823,12.999037 0.49494045,0.49494042 0 0 1 9.99988,12.4791 0.48994105,0.48994102 0 0 1 10.469824,11.999157 m 3.999519,0 h 0.04999 c 0.279967,0.01 0.489941,0.239972 0.479943,0.519938 A 0.48994105,0.48994102 0 0 1 14.479343,12.999037 0.48994105,0.48994102 0 0 1 13.9994,12.4791 0.48994105,0.48994102 0 0 1 14.469344,11.999157" />
</svg>

<svg xmlns="http://www.w3.org/2000/svg" viewBox="0 0 16 16"><path id="folder" fill="#ff9800" d="m6.922 3.768-.644-.536A1 1 0 0 0 5.638 3H2a1 1 0 0 0-1 1v8a1 1 0 0 0 1 1h12a1 1 0 0 0 1-1V5a1 1 0 0 0-1-1H7.562a1 1 0 0 1-.64-.232"/><path id="motive" fill="#ffe0b2" d="M10 5s-1 .93-1 2 3 4 3 4l-.445.44a1.5 1.5 0 0 0-2.55 1 1.505 1.505 0 0 0 1.43 1.559 1.51 1.51 0 0 0 1.555-1.62l1.01-.63.125.155A1.51 1.51 0 0 0 14.439 14a1.505 1.505 0 0 0 1.56-1.44 1.505 1.505 0 0 0-2.19-1.39zm5 0-2 4 1 1s2-1.97 2-3-1-2-1-2m-4.53 7h.05c.255.01.45.2.475.444v.1a.49.49 0 0 1-.515.455.495.495 0 0 1-.48-.52.49.49 0 0 1 .47-.48m4 0h.05c.28.01.49.24.48.52a.49.49 0 0 1-.52.48.49.49 0 0 1-.48-.52.49.49 0 0 1 .47-.48"/></svg>
